public/img/logo/bch.svg

<?xml version="1.0" encoding="UTF-8"?>
<svg width="24px" height="24px" viewBox="0 0 24 24" version="1.1" xmlns="http://www.w3.org/2000/svg" xmlns:xlink="http://www.w3.org/1999/xlink">
    <!-- Generator: Sketch 53.2 (72643) - https://sketchapp.com -->
    <title>bch</title>
    <desc>Created with Sketch.</desc>
    <g id="bch" stroke="none" stroke-width="1" fill="none" fill-rule="evenodd">
        <path d="M13.5804318,12.4394542 C13.2724318,12.3844542 12.8304318,12.4154542 12.2404318,12.5244542 L10.8984318,12.7774542 L11.3154318,15.0134542 C11.3814318,15.3234542 11.4304318,15.5144542 11.4554318,15.5614542 C11.4934318,15.6254542 11.5444318,15.6654542 11.6024318,15.6804542 C11.6654318,15.6954542 11.8234318,15.6844542 12.0754318,15.6334542 L12.8314318,15.4974542 C13.2694318,15.4094542 13.6294318,15.3034542 13.9004318,15.1654542 C14.1754318,15.0294542 14.3884318,14.8134542 14.5454318,14.5194542 C14.6944318,14.2174542 14.7394318,13.8984542 14.6754318,13.5334542 C14.6134318,13.2294542 14.4974318,12.9854542 14.3164318,12.7994542 C14.1284318,12.6144542 13.8864318,12.4914542 13.5804318,12.4394542 Z" id="Shape" fill="#8A8A8F" fill-rule="nonzero"></path>
        <path d="M12.6754318,8.37245418 C12.4044318,8.34045418 11.9394318,8.38145418 11.2734318,8.50745418 L10.1384318,8.71845418 L10.6094318,11.2424542 L11.7474318,11.0314542 C12.3394318,10.9204542 12.7684318,10.7844542 13.0364318,10.6304542 C13.3044318,10.4844542 13.4854318,10.2944542 13.5944318,10.0674542 C13.6964318,9.84445418 13.7304318,9.59845418 13.6774318,9.33245418 C13.6294318,9.06145418 13.5194318,8.84045418 13.3444318,8.67545418 C13.1744318,8.51045418 12.9544318,8.41345418 12.6754318,8.37245418 Z" id="Shape" fill="#8A8A8F" fill-rule="nonzero"></path>
        <path d="M7.67143177,0.813454182 C1.49243177,3.20445418 -1.58056823,10.1514542 0.812431769,16.3344542 C3.20643177,22.5164542 10.1544318,25.5854542 16.3334318,23.1944542 C22.5124318,20.8024542 25.5884318,13.8534542 23.1944318,7.67245418 C20.8034318,1.48845418 13.8514318,-1.58054582 7.67143177,0.813454182 Z M16.1154318,8.48345418 C16.1794318,8.82245418 16.1674318,9.16245418 16.0794318,9.50145418 C15.9904318,9.83245418 15.8324318,10.1474542 15.5984318,10.4314542 C15.3664318,10.7144542 15.0394318,10.9794542 14.6194318,11.2174542 C15.1224318,11.2474542 15.5194318,11.3174542 15.8054318,11.4194542 C16.2134318,11.5584542 16.5634318,11.7904542 16.8544318,12.1254542 C17.1394318,12.4584542 17.3254318,12.8534542 17.4154318,13.3164542 C17.5184318,13.8644542 17.4434318,14.4044542 17.1974318,14.9184542 C16.9574318,15.4514542 16.5514318,15.8904542 15.9914318,16.2434542 C15.7824318,16.3694542 15.5394318,16.4944542 15.2614318,16.6064542 L15.6024318,18.4534542 L13.8504318,18.7844542 L13.5324318,17.0774542 C13.4854318,17.0774542 13.4484318,17.0924542 13.4034318,17.1004542 L12.4044318,17.2884542 L12.7234318,18.9904542 L10.9694318,19.3184542 L10.6494318,17.6124542 L7.97743177,18.1094542 L7.70843177,16.6774542 L8.11743177,16.5964542 C8.39143177,16.5514542 8.56943177,16.4954542 8.65643177,16.4234542 C8.74743177,16.3604542 8.80143177,16.2794542 8.82543177,16.1904542 C8.85043177,16.0954542 8.83443177,15.8964542 8.77443177,15.5954542 L7.69843177,9.82345418 C7.64343177,9.51945418 7.58643177,9.32445418 7.52943177,9.24645418 C7.47343177,9.16945418 7.39443177,9.11445418 7.29043177,9.08945418 C7.18643177,9.05345418 6.99143177,9.06045418 6.72443177,9.11745418 L6.31243177,9.18945418 L6.04543177,7.75645418 L8.72243177,7.26145418 L8.40643177,5.55045418 L10.1634318,5.22645418 L10.4754318,6.92845418 L11.6034318,6.71945418 L11.2884318,5.01645418 L13.0414318,4.68945418 L13.3814318,6.51145418 C13.6504318,6.51145418 13.9024318,6.52745418 14.1124318,6.57645418 C14.6644318,6.69745418 15.1154318,6.92145418 15.4684318,7.26245418 C15.8154318,7.60445418 16.0314318,8.01445418 16.1154318,8.48345418 Z" id="Shape" fill="#8A8A8F" fill-rule="nonzero"></path>
    </g>
</svg>

<?xml version="1.0" encoding="utf-8"?>
<!-- Generator: Adobe Illustrator 16.0.0, SVG Export Plug-In . SVG Version: 6.00 Build 0)  -->
<!DOCTYPE svg PUBLIC "-//W3C//DTD SVG 1.1//EN" "http://www.w3.org/Graphics/SVG/1.1/DTD/svg11.dtd">
<svg version="1.1" id="Layer_1" xmlns="http://www.w3.org/2000/svg" xmlns:xlink="http://www.w3.org/1999/xlink" x="0px" y="0px"
	 width="32px" height="24px" viewBox="-3.917 0 32 24" enable-background="new -3.917 0 32 24" xml:space="preserve">
<title>bch</title>
<desc>Created with Sketch.</desc>
<g id="bch">
	<path id="Shape" fill="#FF9E00" d="M13.58,12.439c-0.308-0.055-0.75-0.024-1.34,0.085l-1.342,0.253l0.417,2.236
		c0.066,0.31,0.115,0.501,0.14,0.548c0.038,0.063,0.089,0.104,0.147,0.119c0.063,0.015,0.221,0.004,0.473-0.048l0.757-0.135
		c0.438-0.088,0.797-0.195,1.068-0.332c0.275-0.137,0.488-0.353,0.645-0.646c0.149-0.303,0.194-0.621,0.131-0.986
		c-0.062-0.304-0.178-0.548-0.359-0.734C14.129,12.614,13.887,12.492,13.58,12.439z"/>
	<path id="Shape_1_" fill="#FF9E00" d="M12.676,8.373c-0.271-0.032-0.736,0.009-1.402,0.135l-1.135,0.211l0.471,2.524l1.138-0.211
		c0.592-0.111,1.021-0.247,1.29-0.401c0.268-0.146,0.448-0.336,0.557-0.563c0.103-0.223,0.137-0.469,0.084-0.735
		c-0.049-0.271-0.158-0.492-0.334-0.657C13.174,8.51,12.955,8.414,12.676,8.373z"/>
	<path id="Shape_2_" fill="#FF9E00" d="M7.671,0.813c-6.179,2.391-9.252,9.338-6.859,15.521c2.394,6.183,9.342,9.252,15.521,6.86
		c6.178-2.392,9.254-9.341,6.86-15.522C20.803,1.488,13.852-1.581,7.671,0.813z M16.115,8.483c0.064,0.339,0.053,0.679-0.035,1.018
		c-0.09,0.331-0.248,0.646-0.481,0.93c-0.232,0.283-0.56,0.548-0.979,0.786c0.504,0.03,0.9,0.1,1.187,0.202
		c0.407,0.139,0.758,0.371,1.049,0.706c0.285,0.333,0.471,0.728,0.562,1.191c0.103,0.548,0.027,1.088-0.219,1.602
		c-0.24,0.533-0.646,0.973-1.206,1.326c-0.209,0.125-0.452,0.25-0.729,0.362l0.341,1.847l-1.752,0.332l-0.318-1.707
		c-0.047,0-0.084,0.014-0.129,0.022l-0.999,0.188l0.319,1.701l-1.754,0.328l-0.32-1.706l-2.672,0.497l-0.269-1.432l0.409-0.082
		c0.274-0.045,0.452-0.1,0.539-0.172c0.091-0.063,0.145-0.145,0.169-0.233c0.025-0.095,0.009-0.294-0.051-0.595L7.698,9.823
		C7.644,9.52,7.586,9.325,7.529,9.247C7.474,9.169,7.395,9.114,7.291,9.089C7.187,9.053,6.991,9.061,6.725,9.118L6.312,9.189
		L6.045,7.756l2.677-0.495L8.406,5.55l1.757-0.324l0.312,1.702l1.128-0.209l-0.315-1.703l1.752-0.327l0.34,1.822
		c0.27,0,0.521,0.016,0.731,0.065c0.552,0.121,1.003,0.345,1.356,0.686C15.815,7.604,16.031,8.015,16.115,8.483z"/>
</g>
<g>
	<path fill="#FF9E00" d="M-2,12c0-4.462,2.106-8.435,5.368-11h-7.285v22h7.285C0.106,20.435-2,16.463-2,12z"/>
	<path fill="#FF9E00" d="M20.632,1C23.894,3.565,26,7.538,26,12c0,4.463-2.106,8.435-5.368,11h7.451V1H20.632z"/>
</g>
</svg>
